X: 576
T: Qingshan shang
%%abc-version 2.0
%%abcx-abcm2ps-target-version 5.9.1 (29 Sep 2008)
%%abc-creator hum2abc beta
%%abcx-conversion-date 2013/10/02 07:52:30
%%abc-edited-by Helmut Schaffrath
%%humdrum-veritas 1613652428
%%humdrum-veritas-data 1401747997
%%continueall 1
%%barnumbers 0
L: 1/8
M: 2/4
K: A
^d> c e f [I:setbarnb 1]| 
e2e2 | 
^d c e f | 
E4 | 
^d c e f | 
B2e A | 
G2B F | 
E4 | 
A2B A | 
G FE2 | 
^d c e f | 
e4 | 
^d> c e f | 
B B e A | 
G2B F | 
E4 |]  



